curriculum/images/exercise-icons/alphanumeric.svg

<svg width="82" height="82" viewBox="0 0 82 82" fill="none" xmlns="http://www.w3.org/2000/svg">
<path d="M41 81C63.0914 81 81 63.0914 81 41C81 18.9086 63.0914 1 41 1C18.9086 1 1 18.9086 1 41C1 63.0914 18.9086 81 41 81Z" fill="#DAEDF7" stroke="#DAEDF7" stroke-miterlimit="10"/>
<path opacity="0.15" d="M40.896 74.347C52.2333 74.347 61.424 73.5362 61.424 72.536C61.424 71.5358 52.2333 70.725 40.896 70.725C29.5587 70.725 20.368 71.5358 20.368 72.536C20.368 73.5362 29.5587 74.347 40.896 74.347Z" fill="#45413C"/>
<path d="M35.462 37H14.935C12.9341 37 11.312 38.6221 11.312 40.623V61.15C11.312 63.1509 12.9341 64.773 14.935 64.773H35.462C37.4629 64.773 39.085 63.1509 39.085 61.15V40.623C39.085 38.6221 37.4629 37 35.462 37Z" fill="#6DD627" stroke="#45413C" stroke-linecap="round" stroke-linejoin="round"/>
<path d="M34.463 40.623H15.935C15.3827 40.623 14.935 41.0707 14.935 41.623V60.15C14.935 60.7023 15.3827 61.15 15.935 61.15H34.463C35.0153 61.15 35.463 60.7023 35.463 60.15V41.623C35.463 41.0707 35.0153 40.623 34.463 40.623Z" fill="white" stroke="#45413C" stroke-linecap="round" stroke-linejoin="round"/>
<path d="M28.551 49.991C28.8579 49.682 29.0941 49.3101 29.2432 48.9009C29.3924 48.4917 29.451 48.055 29.415 47.621C29.3225 46.8448 28.9442 46.1308 28.3539 45.6183C27.7635 45.1058 27.0035 44.8316 26.222 44.849H22.18C22.0214 44.8489 21.8643 44.88 21.7178 44.9406C21.5712 45.0012 21.438 45.0901 21.3259 45.2022C21.2137 45.3143 21.1247 45.4474 21.064 45.5939C21.0032 45.7404 20.972 45.8974 20.972 46.056V55.7161C20.972 56.0365 21.0993 56.3436 21.3258 56.5702C21.5523 56.7967 21.8596 56.9241 22.18 56.9241H27.1C28.0375 56.9241 28.9367 56.5517 29.5996 55.8887C30.2625 55.2258 30.635 54.3265 30.635 53.389V53.214C30.6348 52.5332 30.438 51.8669 30.0683 51.2952C29.6986 50.7234 29.1718 50.2706 28.551 49.991Z" fill="#6DD627" stroke="#45413C" stroke-linecap="round" stroke-linejoin="round"/>
<path d="M25.2 49.679H23.991V47.264H25.2C25.3585 47.2639 25.5155 47.295 25.662 47.3556C25.8085 47.4162 25.9416 47.5051 26.0537 47.6172C26.1658 47.7293 26.2547 47.8625 26.3154 48.009C26.376 48.1555 26.4071 48.3125 26.407 48.471C26.4071 48.6296 26.376 48.7867 26.3154 48.9332C26.2548 49.0798 26.1659 49.2129 26.0538 49.3251C25.9417 49.4373 25.8086 49.5263 25.6621 49.587C25.5156 49.6478 25.3586 49.679 25.2 49.679Z" fill="white" stroke="#45413C" stroke-linecap="round" stroke-linejoin="round"/>
<path d="M25.8 54.509H23.991V52.094H25.8C25.9586 52.0936 26.1158 52.1245 26.2626 52.1849C26.4093 52.2453 26.5426 52.3341 26.655 52.4461C26.7674 52.5581 26.8566 52.6912 26.9175 52.8377C26.9784 52.9842 27.0098 53.1413 27.01 53.3C27.0101 53.4589 26.9789 53.6162 26.9181 53.763C26.8573 53.9099 26.7682 54.0432 26.6558 54.1555C26.5434 54.2678 26.4099 54.3569 26.2631 54.4175C26.1162 54.4782 25.9589 54.5093 25.8 54.509Z" fill="white" stroke="#45413C" stroke-linecap="round" stroke-linejoin="round"/>
<path d="M47.538 37H68.065C69.0256 37 69.9469 37.3816 70.6261 38.0609C71.3054 38.7401 71.687 39.6614 71.687 40.622V61.15C71.687 62.1109 71.3053 63.0324 70.6258 63.7118C69.9464 64.3913 69.0249 64.773 68.064 64.773H47.537C46.5761 64.773 45.6546 64.3913 44.9752 63.7118C44.2957 63.0324 43.914 62.1109 43.914 61.15V40.623C43.914 40.1471 44.0077 39.6759 44.1899 39.2363C44.372 38.7967 44.639 38.3972 44.9755 38.0608C45.312 37.7244 45.7116 37.4575 46.1512 37.2755C46.5909 37.0935 47.0621 36.9999 47.538 37Z" fill="#FF6242" stroke="#45413C" stroke-linecap="round" stroke-linejoin="round"/>
<path d="M67.065 40.623H48.537C47.9847 40.623 47.537 41.0707 47.537 41.623V60.15C47.537 60.7023 47.9847 61.15 48.537 61.15H67.065C67.6173 61.15 68.065 60.7023 68.065 60.15V41.623C68.065 41.0707 67.6173 40.623 67.065 40.623Z" fill="white" stroke="#45413C" stroke-linecap="round" stroke-linejoin="round"/>
<path d="M62.342 53.177C62.1343 53.0623 61.8955 53.0163 61.66 53.0456C61.4245 53.0748 61.2043 53.1779 61.031 53.34C60.5616 53.7426 59.9866 54.0021 59.3742 54.0878C58.7618 54.1735 58.1376 54.0817 57.5757 53.8234C57.0139 53.5651 56.5379 53.1511 56.2042 52.6305C55.8706 52.1098 55.6932 51.5044 55.6932 50.886C55.6932 50.2676 55.8706 49.6622 56.2042 49.1415C56.5379 48.6209 57.0139 48.2069 57.5757 47.9486C58.1376 47.6902 58.7618 47.5985 59.3742 47.6842C59.9866 47.7699 60.5616 48.0294 61.031 48.432C61.2042 48.5942 61.4244 48.6975 61.6599 48.727C61.8954 48.7564 62.1342 48.7106 62.342 48.596C62.6285 48.4271 62.8674 48.1882 63.0362 47.9017C63.205 47.6152 63.2982 47.2904 63.307 46.958C63.307 45.513 60.43 44.245 58.189 44.245C54.367 44.245 52.367 47.681 52.367 50.886C52.367 54.091 54.367 57.528 58.189 57.528C60.43 57.528 63.307 56.26 63.307 54.814C63.2984 54.4817 63.2052 54.157 63.0364 53.8706C62.8676 53.5842 62.6286 53.3455 62.342 53.177Z" fill="#FF6242" stroke="#45413C" stroke-linecap="round" stroke-linejoin="round"/>
<path d="M51.765 9.22803H31.236C29.2356 9.22803 27.614 10.8496 27.614 12.85V33.378C27.614 35.3784 29.2356 37 31.236 37H51.765C53.7654 37 55.387 35.3784 55.387 33.378V12.85C55.387 10.8496 53.7654 9.22803 51.765 9.22803Z" fill="#FFE500" stroke="#45413C" stroke-linecap="round" stroke-linejoin="round"/>
<path d="M50.764 12.85H32.236C31.6837 12.85 31.236 13.2977 31.236 13.85V32.378C31.236 32.9303 31.6837 33.378 32.236 33.378H50.764C51.3163 33.378 51.764 32.9303 51.764 32.378V13.85C51.764 13.2977 51.3163 12.85 50.764 12.85Z" fill="white" stroke="#45413C" stroke-linecap="round" stroke-linejoin="round"/>
<path d="M41.5 22.51V21.906" stroke="#45413C" stroke-linecap="round" stroke-linejoin="round"/>
<path d="M39.5923 16L44.1109 16.0192C45.1756 16.0192 45.7264 16.1532 45.7264 17.7199C45.7264 19.044 45.3058 19.289 44.2207 19.289H41.0038C40.9787 19.439 40.9175 19.9123 40.8202 20.7088C41.5067 20.6123 42.2057 20.6794 42.8623 20.9047C43.5189 21.1301 44.115 21.5076 44.6036 22.0073C45.052 22.4201 45.4086 22.9256 45.6493 23.49C45.89 24.0543 46.0094 24.6645 45.9994 25.2796C46.0083 25.8958 45.8958 26.5076 45.6686 27.0789C45.4414 27.6502 45.1041 28.1694 44.6766 28.6061C44.255 29.0591 43.7446 29.4172 43.1785 29.6571C42.6123 29.897 42.003 30.0134 41.3899 29.9988C38.7481 29.9988 37 28.3068 37 27.5127C37.0717 27.0367 37.3137 26.6044 37.6795 26.2988C37.8051 26.1262 37.9647 25.9821 38.1482 25.8759C38.3317 25.7697 38.5349 25.7036 38.745 25.6818C39.2088 25.7372 39.6414 25.9474 39.9752 26.2796C40.3172 26.5316 40.7271 26.6705 41.1493 26.6773C41.5716 26.6842 41.9856 26.5587 42.3353 26.3179C42.4649 26.1886 42.5671 26.0337 42.6358 25.8627C42.7044 25.6918 42.7381 25.5084 42.7346 25.3238C42.7312 25.1391 42.6907 24.9572 42.6157 24.789C42.5407 24.6209 42.4327 24.47 42.2984 24.3458C42.0422 24.1158 41.7135 23.9866 41.3718 23.9815C41.0301 23.9764 40.6978 24.0957 40.435 24.3179C40.1631 24.5797 39.8072 24.7326 39.4331 24.748C39.0251 24.7267 38.6282 24.6051 38.2766 24.3937C37.9677 24.244 37.6805 24.052 37.4229 23.823C37.3612 23.7641 37.3115 23.6934 37.2768 23.6149C37.2421 23.5365 37.2229 23.4518 37.2205 23.3657C37.2205 23.2061 37.9611 17.5555 37.9729 17.4797C38.0211 17.0755 38.2118 16.7027 38.5096 16.4306C38.8074 16.1585 39.1921 16.0055 39.5923 16Z" fill="#FFF48C" stroke="#45413C" stroke-linecap="round" stroke-linejoin="round"/>
</svg>

<svg xmlns="http://www.w3.org/2000/svg" width="82" height="82" fill="none" viewBox="0 0 82 82"><path fill="#daedf7" stroke="#daedf7" stroke-miterlimit="10" d="M41 81c22.091 0 40-17.909 40-40S63.091 1 41 1 1 18.909 1 41s17.909 40 40 40Z"/><path fill="#45413c" d="M40.896 74.347c11.337 0 20.528-.81 20.528-1.811s-9.19-1.811-20.528-1.811-20.528.81-20.528 1.811 9.19 1.811 20.528 1.811" opacity=".15"/><path fill="#6dd627" stroke="#45413c" stroke-linecap="round" stroke-linejoin="round" d="M35.462 37H14.935c-2 0-3.623 1.622-3.623 3.623V61.15c0 2 1.622 3.623 3.623 3.623h20.527c2 0 3.623-1.622 3.623-3.623V40.623c0-2-1.622-3.623-3.623-3.623"/><path fill="#fff" stroke="#45413c" stroke-linecap="round" stroke-linejoin="round" d="M34.463 40.623H15.935a1 1 0 0 0-1 1V60.15a1 1 0 0 0 1 1h18.528a1 1 0 0 0 1-1V41.623a1 1 0 0 0-1-1"/><path fill="#6dd627" stroke="#45413c" stroke-linecap="round" stroke-linejoin="round" d="M28.551 49.991a3 3 0 0 0 .864-2.37 3.145 3.145 0 0 0-3.193-2.772H22.18a1.207 1.207 0 0 0-1.208 1.207v9.66a1.21 1.21 0 0 0 1.208 1.208h4.92a3.535 3.535 0 0 0 3.535-3.535v-.175a3.54 3.54 0 0 0-2.084-3.223"/><path fill="#fff" stroke="#45413c" stroke-linecap="round" stroke-linejoin="round" d="M25.2 49.679h-1.209v-2.415H25.2a1.207 1.207 0 1 1 0 2.415M25.8 54.509h-1.809v-2.415H25.8a1.208 1.208 0 1 1 0 2.415"/><path fill="#ff6242" stroke="#45413c" stroke-linecap="round" stroke-linejoin="round" d="M47.538 37h20.527a3.62 3.62 0 0 1 3.622 3.622V61.15a3.623 3.623 0 0 1-3.623 3.623H47.537a3.623 3.623 0 0 1-3.623-3.623V40.623A3.62 3.62 0 0 1 47.538 37"/><path fill="#fff" stroke="#45413c" stroke-linecap="round" stroke-linejoin="round" d="M67.065 40.623H48.537a1 1 0 0 0-1 1V60.15a1 1 0 0 0 1 1h18.528a1 1 0 0 0 1-1V41.623a1 1 0 0 0-1-1"/><path fill="#ff6242" stroke="#45413c" stroke-linecap="round" stroke-linejoin="round" d="M62.342 53.177a1.12 1.12 0 0 0-1.311.163 3.233 3.233 0 1 1 0-4.908 1.125 1.125 0 0 0 1.311.164 1.96 1.96 0 0 0 .965-1.638c0-1.445-2.877-2.713-5.118-2.713-3.822 0-5.822 3.436-5.822 6.641s2 6.642 5.822 6.642c2.241 0 5.118-1.268 5.118-2.714a1.96 1.96 0 0 0-.965-1.637"/><path fill="#ffe500" stroke="#45413c" stroke-linecap="round" stroke-linejoin="round" d="M51.765 9.228H31.236c-2 0-3.622 1.622-3.622 3.622v20.528c0 2 1.622 3.622 3.622 3.622h20.529c2 0 3.622-1.622 3.622-3.622V12.85c0-2-1.622-3.622-3.622-3.622"/><path fill="#fff" stroke="#45413c" stroke-linecap="round" stroke-linejoin="round" d="M50.764 12.85H32.236a1 1 0 0 0-1 1v18.528a1 1 0 0 0 1 1h18.528a1 1 0 0 0 1-1V13.85a1 1 0 0 0-1-1"/><path stroke="#45413c" stroke-linecap="round" stroke-linejoin="round" d="M41.5 22.51v-.604"/><path fill="#fff48c" stroke="#45413c" stroke-linecap="round" stroke-linejoin="round" d="m39.592 16 4.519.02c1.065 0 1.615.133 1.615 1.7 0 1.324-.42 1.569-1.505 1.569h-3.217q-.038.225-.184 1.42a4.4 4.4 0 0 1 2.042.196 4.46 4.46 0 0 1 1.742 1.102c.448.413.805.919 1.045 1.483.241.564.36 1.175.35 1.79a4.7 4.7 0 0 1-.33 1.799 4.6 4.6 0 0 1-.992 1.527 4.4 4.4 0 0 1-1.498 1.051 4.3 4.3 0 0 1-1.79.342c-2.64 0-4.389-1.692-4.389-2.486.072-.476.314-.909.68-1.214a1.53 1.53 0 0 1 1.065-.617c.464.055.896.265 1.23.598a2.03 2.03 0 0 0 2.36.038 1.36 1.36 0 0 0 .4-.994 1.38 1.38 0 0 0-.437-.978 1.42 1.42 0 0 0-1.863-.028 1.54 1.54 0 0 1-1.002.43 2.5 2.5 0 0 1-1.156-.354 3.7 3.7 0 0 1-.854-.571.65.65 0 0 1-.203-.457c0-.16.741-5.81.753-5.886.048-.404.239-.777.537-1.05a1.64 1.64 0 0 1 1.082-.43"/></svg>
